!! 00000] TT[00
!! NN
!!!OTL: Renjia dou zai ni buzai
!!!ARE: Asia, China, Shanxi, Hequ
!! Ethnic Group: Han
!! I, 334
!!!SCT: C0099
!!!YEM: Copyright 1995, estate of Helmut Schaffrath.
**kern
*ICvox
*Ivox
*M2/4
*k[b-e-]
*B-:
{8ccc
4ddd
16ddd
16ggg
=1
8ccc
8ccc
8bb-
16bb-
16gg
=2
8gg
16ff
16dd
8dd
16ff
16bb-
=3
2dd}
=4
{8ccc
4ddd
16ddd
16ggg
=5
8ccc
8ccc
8bb-
16bb-
16gg
=6
8gg
16ff
16dd
8dd
16dd
16bb-
=7
2gg}
==
!!!AGN: Shange, Shanqu. NannÅ siqing
!! 
!!!ONB: ESAC (Essen Associative Code) Database: CHINA
!!!AMT: simple duple
!!!AIN: vox
!!!EED: Helmut Schaffrath
!!!EEV: 1.0
*-
